X: 331
T:Mouse in the Mug
M:6/8
L:1/8
R:Jig
Z:Kevin Gow
K:G
G2G EGD|G2G Bdg|efg dBG|AGA BGE|G2G EGD|G2G Bdg|!
efg dBG|AGF G2f:|gab agf|edg ed^c|deg edB|BAG A2f|!
gab agf|edg ed^c|deg edB|AGF G2f|gab agf|edg ed^c|!
deg edB|BAG A2A||G2G EGD|G2G Bdg|efg dBG|AGF G2z||

